flaticon/arrows/diagonal-5.svg

<svg xmlns="http://www.w3.org/2000/svg" width="32" height="32" viewBox="0 0 24 24">
    <path d="M 12 0 C 5.382812 0 0 5.382812 0 12 C 0 18.617188 5.382812 24 12 24 C 18.617188 24 24 18.617188 24 12 C 24 5.382812 18.617188 0 12 0 Z M 12 23.109375 C 5.875 23.109375 0.890625 18.125 0.890625 12 C 0.890625 5.875 5.875 0.890625 12 0.890625 C 18.125 0.890625 23.109375 5.875 23.109375 12 C 23.109375 18.125 18.125 23.109375 12 23.109375 Z M 12 23.109375"/>
    <path d="M 15.554688 14.925781 L 8.144531 7.515625 C 7.96875 7.339844 7.6875 7.339844 7.515625 7.515625 C 7.339844 7.6875 7.339844 7.96875 7.515625 8.144531 L 14.925781 15.554688 L 9.714844 15.554688 L 9.714844 16.445312 L 16.445312 16.445312 L 16.445312 9.714844 L 15.554688 9.714844 Z M 15.554688 14.925781"/>
</svg>

<svg xmlns="http://www.w3.org/2000/svg" width="32" height="32" viewBox="0 0 24 24">
    <path d="M12 0C5.383 0 0 5.383 0 12s5.383 12 12 12 12-5.383 12-12S18.617 0 12 0zm0 23.11C5.875 23.11.89 18.124.89 12 .89 5.875 5.876.89 12 .89 18.125.89 23.11 5.876 23.11 12c0 6.125-4.985 11.11-11.11 11.11zm0 0"/>
    <path d="M15.555 14.926l-7.41-7.41a.44.44 0 0 0-.63 0 .44.44 0 0 0 0 .629l7.41 7.41h-5.21v.89h6.73v-6.73h-.89zm0 0"/>
</svg>
